svg/weather/sun_2_line.svg

<?xml version="1.0" encoding="UTF-8"?>
<svg width="24px" height="24px" viewBox="0 0 24 24" version="1.1" xmlns="http://www.w3.org/2000/svg" xmlns:xlink="http://www.w3.org/1999/xlink">
    <title>sun_line</title>
    <g id="Icon" stroke="none" stroke-width="1" fill="none" fill-rule="evenodd">
        <g id="Weather" transform="translate(-673.000000, -192.000000)">
            <g id="sun_line" transform="translate(673.000000, 192.000000)">
                <path d="M24,0 L24,24 L0,24 L0,0 L24,0 Z M12.5935,23.2578 L12.5819,23.2595 L12.5109,23.295 L12.4919,23.2987 L12.4767,23.295 L12.4057,23.2595 C12.3958,23.2564 12.387,23.259 12.3821,23.2649 L12.378,23.2758 L12.3609,23.7031 L12.3659,23.7235 L12.3769,23.7357 L12.4805,23.8097 L12.4953,23.8136 L12.5071,23.8097 L12.6107,23.7357 L12.6233,23.7197 L12.6267,23.7031 L12.6096,23.2758 C12.6076,23.2657 12.601,23.2593 12.5935,23.2578 Z M12.8584,23.1453 L12.8445,23.1473 L12.6598,23.2397 L12.6499,23.2499 L12.6472,23.2611 L12.6651,23.6906 L12.6699,23.7034 L12.6784,23.7105 L12.8793,23.8032 C12.8914,23.8069 12.9022,23.803 12.9078,23.7952 L12.9118,23.7812 L12.8777,23.1665 C12.8753,23.1546 12.8674,23.147 12.8584,23.1453 Z M12.143,23.1473 C12.1332,23.1424 12.1222,23.1453 12.1156,23.1526 L12.1099,23.1665 L12.0758,23.7812 C12.0751,23.7927 12.0828,23.8019 12.0926,23.8046 L12.1083,23.8032 L12.3092,23.7105 L12.3186,23.7024 L12.3225,23.6906 L12.3404,23.2611 L12.3372,23.2485 L12.3278,23.2397 L12.143,23.1473 Z" id="MingCute" fill-rule="nonzero"></path>
                <path d="M3.93552,8 L3,8 C2.44772,8 2,8.44772 2,9 C2,9.55228 2.44772,10 3,10 L3.22302,10 C3.07706,10.6432 3,11.3126 3,12 C3,16.9706 7.02944,21 12,21 C15.5337,21 18.5918,18.9634 20.0645,16 L21,16 C21.5523,16 22,15.5523 22,15 C22,14.4477 21.5523,14 21,14 L20.777,14 C20.9229,13.3568 21,12.6874 21,12 C21,7.02944 16.9706,3 12,3 C8.46628,3 5.40822,5.03656 3.93552,8 Z M6.25469,8 C7.51964,6.18652 9.62125,5 12,5 C15.866,5 19,8.13401 19,12 C19,12.695 18.8987,13.3663 18.7101,14 L9.5,14 C9.22386,14 9,13.7761 9,13.5 C9,13.2239 9.22386,13 9.5,13 L11.5,13 C12.8807,13 14,11.8807 14,10.5 C14,9.11929 12.8807,8 11.5,8 L6.25469,8 Z M17.7453,16 C16.4804,17.8135 14.3787,19 12,19 C8.13401,19 5,15.866 5,12 C5,11.305 5.10128,10.6337 5.28988,10 L11.5,10 C11.7761,10 12,10.2239 12,10.5 C12,10.7761 11.7761,11 11.5,11 L9.5,11 C8.11929,11 7,12.1193 7,13.5 C7,14.8807 8.11929,16 9.5,16 L17.7453,16 Z" id="形状" fill="#09244B"></path>
            </g>
        </g>
    </g>
</svg>

<svg xmlns="http://www.w3.org/2000/svg" width="24" height="24"><g fill="none" fill-rule="evenodd"><path d="M24 0v24H0V0h24ZM12.594 23.258l-.012.002-.071.035-.02.004-.014-.004-.071-.036c-.01-.003-.019 0-.024.006l-.004.01-.017.428.005.02.01.013.104.074.015.004.012-.004.104-.074.012-.016.004-.017-.017-.427c-.002-.01-.009-.017-.016-.018Zm.264-.113-.014.002-.184.093-.01.01-.003.011.018.43.005.012.008.008.201.092c.012.004.023 0 .029-.008l.004-.014-.034-.614c-.003-.012-.01-.02-.02-.022Zm-.715.002a.023.023 0 0 0-.027.006l-.006.014-.034.614c0 .012.007.02.017.024l.015-.002.201-.093.01-.008.003-.011.018-.43-.003-.012-.01-.01-.184-.092Z"/><path fill="#09244B" d="M3.936 8H3a1 1 0 0 0 0 2h.223a9 9 0 0 0 16.841 6H21a1 1 0 1 0 0-2h-.223A9 9 0 0 0 3.936 8Zm2.319 0a7 7 0 0 1 12.455 6H9.5a.5.5 0 0 1 0-1h2a2.5 2.5 0 0 0 0-5H6.255Zm11.49 8A7 7 0 0 1 5.29 10h6.21a.5.5 0 0 1 0 1h-2a2.5 2.5 0 0 0 0 5h8.245Z"/></g></svg>
